svgs/duotone/basket-shopping-simple.svg

<svg xmlns="http://www.w3.org/2000/svg" viewBox="0 0 576 512"><!--! Font Awesome Pro 6.3.0 by @fontawesome - https://fontawesome.com License - https://fontawesome.com/license (Commercial License) Copyright 2023 Fonticons, Inc. --><defs><style>.fa-secondary{opacity:.4}</style></defs><path class="fa-primary" d="M149.9 265.8C144.5 277.9 130.3 283.3 118.2 277.9C106.1 272.5 100.7 258.3 106.1 246.2L210.1 14.18C215.5 2.087 229.7-3.323 241.8 2.099C253.9 7.521 259.3 21.72 253.9 33.82L149.9 265.8zM322.1 33.82C316.7 21.72 322.1 7.521 334.2 2.099C346.3-3.323 360.5 2.087 365.9 14.18L469.9 246.2C475.3 258.3 469.9 272.5 457.8 277.9C445.7 283.3 431.5 277.9 426.1 265.8L322.1 33.82z"/><path class="fa-secondary" d="M393 192L426.1 265.8C431.5 277.9 445.7 283.3 457.8 277.9C469.9 272.5 475.3 258.3 469.9 246.2L445.6 192H544C561.7 192 576 206.3 576 224C576 241.7 561.7 256 544 256L492.1 463.5C484.1 492 459.4 512 430 512H145.1C116.6 512 91 492 83.88 463.5L32 256C14.33 256 0 241.7 0 224C0 206.3 14.33 192 32 192H130.4L106.1 246.2C100.7 258.3 106.1 272.5 118.2 277.9C130.3 283.3 144.5 277.9 149.9 265.8L182.1 192H393z"/></svg>

<svg xmlns="http://www.w3.org/2000/svg" viewBox="0 0 576 512"><!--! Font Awesome Pro 6.4.0 by @fontawesome - https://fontawesome.com License - https://fontawesome.com/license (Commercial License) Copyright 2023 Fonticons, Inc. --><defs><style>.fa-secondary{opacity:.4}</style></defs><path class="fa-primary" d="M253.9 33.8c5.4-12.1 0-26.3-12.1-31.7s-26.3 0-31.7 12.1l-104 232c-5.4 12.1 0 26.3 12.1 31.7s26.3 0 31.7-12.1l104-232zm68.2 0l104 232c5.4 12.1 19.6 17.5 31.7 12.1s17.5-19.6 12.1-31.7l-104-232C360.5 2.1 346.3-3.3 334.2 2.1s-17.5 19.6-12.1 31.7z"/><path class="fa-secondary" d="M393 192l33.1 73.8c5.4 12.1 19.6 17.5 31.7 12.1s17.5-19.6 12.1-31.7L445.6 192H544c17.7 0 32 14.3 32 32s-14.3 32-32 32L492.1 463.5C485 492 459.4 512 430 512H146c-29.4 0-55-20-62.1-48.5L32 256c-17.7 0-32-14.3-32-32s14.3-32 32-32h98.4l-24.3 54.2c-5.4 12.1 0 26.3 12.1 31.7s26.3 0 31.7-12.1L183 192H393z"/></svg>
